LGBTQmap/icons/vet.svg

<?xml version="1.0" encoding="UTF-8" standalone="no"?>
<svg
   xmlns:dc="http://purl.org/dc/elements/1.1/"
   xmlns:cc="http://creativecommons.org/ns#"
   xmlns:rdf="http://www.w3.org/1999/02/22-rdf-syntax-ns#"
   xmlns:svg="http://www.w3.org/2000/svg"
   xmlns="http://www.w3.org/2000/svg"
   xmlns:sodipodi="http://sodipodi.sourceforge.net/DTD/sodipodi-0.dtd"
   xmlns:inkscape="http://www.inkscape.org/namespaces/inkscape"
   version="1.1"
   id="veterinary-15"
   width="15px"
   height="15px"
   viewBox="0 0 15 15"
   sodipodi:docname="vet.svg"
   inkscape:version="0.92.5 (2060ec1f9f, 2020-04-08)">
  <metadata
     id="metadata12">
    <rdf:RDF>
      <cc:Work
         rdf:about="">
        <dc:format>image/svg+xml</dc:format>
        <dc:type
           rdf:resource="http://purl.org/dc/dcmitype/StillImage" />
      </cc:Work>
    </rdf:RDF>
  </metadata>
  <defs
     id="defs10" />
  <sodipodi:namedview
     pagecolor="#ffffff"
     bordercolor="#666666"
     borderopacity="1"
     objecttolerance="10"
     gridtolerance="10"
     guidetolerance="10"
     inkscape:pageopacity="0"
     inkscape:pageshadow="2"
     inkscape:window-width="722"
     inkscape:window-height="480"
     id="namedview8"
     showgrid="false"
     inkscape:zoom="15.733333"
     inkscape:cx="7.5"
     inkscape:cy="7.5"
     inkscape:window-x="0"
     inkscape:window-y="27"
     inkscape:window-maximized="0"
     inkscape:current-layer="veterinary-15" />
  <path
     id="path3340"
     d="M7.5,6c-2.5,0-3,2.28-3,3.47l0,0c-0.6097,0.2059-1.1834,0.5062-1.7,0.89
	c-0.871,0.6614-1.0492,1.8998-0.4,2.78c0.6799,0.8542,1.9081,1.0297,2.8,0.4c0.6779-0.4601,1.4808-0.701,2.3-0.69
	c0.8192-0.011,1.6221,0.2299,2.3,0.69c0.8575,0.6854,2.1072,0.5515,2.8-0.3c0.6888-0.8134,0.5878-2.0313-0.2256-2.7201
	c-0.0243-0.0206-0.0491-0.0406-0.0744-0.0599l-0.1-0.1c-0.5333-0.3564-1.1032-0.6548-1.7-0.89l0,0C10.5,8.29,10,6,7.5,6z"
     style="fill:#ff3979;fill-opacity:1" />
  <path
     id="ellipse4153"
     d="M2.08,4.3c-0.7348,0.3676-1.0652,1.2371-0.76,2c0.064,0.8282,0.7809,1.4517,1.61,1.4
	c0.7348-0.3676,1.0652-1.2371,0.76-2C3.626,4.8718,2.9091,4.2483,2.08,4.3z"
     style="fill:#ff3979;fill-opacity:1" />
  <path
     id="ellipse4163"
     d="M12.93,4.3c0.7348,0.3676,1.0653,1.2371,0.76,2c-0.064,0.8282-0.7809,1.4517-1.61,1.4
	c-0.7348-0.3676-1.0653-1.2371-0.76-2C11.384,4.8718,12.1009,4.2483,12.93,4.3z"
     style="fill:#ff3979;fill-opacity:1" />
  <path
     id="ellipse4165"
     d="M5.08,1.3c-0.68,0.09-1,0.94-0.76,1.87C4.4301,3.9951,5.1003,4.6321,5.93,4.7c0.68-0.09,1-0.94,0.76-1.87
	C6.5799,2.0049,5.9097,1.3679,5.08,1.3z"
     style="fill:#ff3979;fill-opacity:1" />
  <path
     id="ellipse4167"
     d="M9.93,1.3c0.68,0.09,1,0.94,0.76,1.87C10.5791,3.9986,9.9036,4.6365,9.07,4.7c-0.68-0.08-1-0.94-0.76-1.87
	C8.4209,2.0014,9.0964,1.3634,9.93,1.3z"
     style="fill:#ff3979;fill-opacity:1" />
</svg>

<?xml version="1.0" encoding="UTF-8" standalone="no"?>
<svg
   xmlns:dc="http://purl.org/dc/elements/1.1/"
   xmlns:cc="http://creativecommons.org/ns#"
   xmlns:rdf="http://www.w3.org/1999/02/22-rdf-syntax-ns#"
   xmlns:svg="http://www.w3.org/2000/svg"
   xmlns="http://www.w3.org/2000/svg"
   xmlns:sodipodi="http://sodipodi.sourceforge.net/DTD/sodipodi-0.dtd"
   xmlns:inkscape="http://www.inkscape.org/namespaces/inkscape"
   version="1.1"
   id="veterinary-15"
   width="12.596726"
   height="12.677786"
   viewBox="0 0 12.596726 12.677786"
   sodipodi:docname="vet.svg"
   inkscape:version="0.92.5 (2060ec1f9f, 2020-04-08)">
  <metadata
     id="metadata12">
    <rdf:RDF>
      <cc:Work
         rdf:about="">
        <dc:format>image/svg+xml</dc:format>
        <dc:type
           rdf:resource="http://purl.org/dc/dcmitype/StillImage" />
        <dc:title></dc:title>
      </cc:Work>
    </rdf:RDF>
  </metadata>
  <defs
     id="defs10" />
  <sodipodi:namedview
     pagecolor="#ffffff"
     bordercolor="#666666"
     borderopacity="1"
     objecttolerance="10"
     gridtolerance="10"
     guidetolerance="10"
     inkscape:pageopacity="0"
     inkscape:pageshadow="2"
     inkscape:window-width="724"
     inkscape:window-height="480"
     id="namedview8"
     showgrid="false"
     inkscape:zoom="15.733333"
     inkscape:cx="-4.4164042"
     inkscape:cy="6.4777859"
     inkscape:window-x="0"
     inkscape:window-y="27"
     inkscape:window-maximized="0"
     inkscape:current-layer="veterinary-15"
     fit-margin-top="0"
     fit-margin-left="0"
     fit-margin-right="0"
     fit-margin-bottom="0" />
  <g
     id="g824"
     style="fill:#da3ca9;fill-opacity:1"
     transform="translate(-1.2066581,-1.3)">
    <path
       style="fill:#da3ca9;fill-opacity:1"
       d="M 7.5,6 C 5,6 4.5,8.28 4.5,9.47 v 0 c -0.6097,0.2059 -1.1834,0.5062 -1.7,0.89 -0.871,0.6614 -1.0492,1.8998 -0.4,2.78 0.6799,0.8542 1.9081,1.0297 2.8,0.4 0.6779,-0.4601 1.4808,-0.701 2.3,-0.69 0.8192,-0.011 1.6221,0.2299 2.3,0.69 0.8575,0.6854 2.1072,0.5515 2.8,-0.3 0.6888,-0.8134 0.5878,-2.0313 -0.2256,-2.7201 C 12.3501,10.4993 12.3253,10.4793 12.3,10.46 l -0.1,-0.1 C 11.6667,10.0036 11.0968,9.7052 10.5,9.47 v 0 C 10.5,8.29 10,6 7.5,6 Z"
       id="path3340"
       inkscape:connector-curvature="0" />
    <path
       style="fill:#da3ca9;fill-opacity:1"
       d="M 2.08,4.3 C 1.3452,4.6676 1.0148,5.5371 1.32,6.3 1.384,7.1282 2.1009,7.7517 2.93,7.7 3.6648,7.3324 3.9952,6.4629 3.69,5.7 3.626,4.8718 2.9091,4.2483 2.08,4.3 Z"
       id="ellipse4153"
       inkscape:connector-curvature="0" />
    <path
       style="fill:#da3ca9;fill-opacity:1"
       d="m 12.93,4.3 c 0.7348,0.3676 1.0653,1.2371 0.76,2 -0.064,0.8282 -0.7809,1.4517 -1.61,1.4 -0.7348,-0.3676 -1.0653,-1.2371 -0.76,-2 0.064,-0.8282 0.7809,-1.4517 1.61,-1.4 z"
       id="ellipse4163"
       inkscape:connector-curvature="0" />
    <path
       style="fill:#da3ca9;fill-opacity:1"
       d="M 5.08,1.3 C 4.4,1.39 4.08,2.24 4.32,3.17 4.4301,3.9951 5.1003,4.6321 5.93,4.7 6.61,4.61 6.93,3.76 6.69,2.83 6.5799,2.0049 5.9097,1.3679 5.08,1.3 Z"
       id="ellipse4165"
       inkscape:connector-curvature="0" />
    <path
       style="fill:#da3ca9;fill-opacity:1"
       d="m 9.93,1.3 c 0.68,0.09 1,0.94 0.76,1.87 C 10.5791,3.9986 9.9036,4.6365 9.07,4.7 8.39,4.62 8.07,3.76 8.31,2.83 8.4209,2.0014 9.0964,1.3634 9.93,1.3 Z"
       id="ellipse4167"
       inkscape:connector-curvature="0" />
  </g>
</svg>
